assets/images/user.svg

<svg height="20" viewBox="0 0 20 20" width="20" xmlns="http://www.w3.org/2000/svg"><g fill="none" fill-rule="evenodd"><circle cx="10" cy="10" fill="#000" opacity=".300759" r="10"/><path d="m9.99928831 3.63636364c.21493179 0 .41562969.10817759.53234759.28752465l2.3884474 3.6524172 2.5108589-1.32090536c.2092383-.10960099.4626016-.09536709.6576059.03843151.1950044.1337986.2989118.36581108.270444.60067033l-.822719 6.85219653c-.1152946.946554-.9195096 1.6610954-1.8746039 1.6610954h-7.3261852c-.9536709 0-1.7593093-.7145414-1.87318045-1.6625188l-.82129568-6.85219652c-.02846779-.23485925.07543964-.46544834.27044398-.60067033.19500435-.1337986.44836766-.1480325.65760591-.03843151l2.51085889 1.32090536 2.38702402-3.65099381c.11814132-.17934706.31741584-.28752465.53234764-.28752465zm0 1.79916419-2.17209222 3.32219086c-.17934707.27471415-.5380412.36723446-.82841263.2149318l-1.95004348-1.02768715.67753336 5.64943256c.03700812.3088755.29891177.5408879.61063405.5408879h7.32618521c.3102989 0 .5722026-.2320124.6106341-.5408879l.6775333-5.64943256-1.9500435 1.02626376c-.288948.15230266-.6490655.05978235-.8284126-.2149318zm2.31727789 4.93773787c.2419762.2547867.2320125.6576059-.0227742.8995821l-1.4077321 1.3365626c-.2490931.2348592-.5679324.3530006-.88677159.3530006-.31883923 0-.63767845-.1181414-.8867716-.3530006l-1.40773211-1.3365626c-.2547867-.2419762-.26475043-.6447954-.02277423-.8995821.24197619-.2547867.64479539-.2647505.8995821-.0227743l1.40773211 1.3365627 1.42765952-1.3365627c.2547867-.2419762.6576059-.2320124.8995821.0227743z" fill="#fff" fill-rule="nonzero"/></g></svg>

<?xml version="1.0" encoding="UTF-8"?>
<svg width="20px" height="20px" viewBox="0 0 20 20" version="1.1" xmlns="http://www.w3.org/2000/svg" xmlns:xlink="http://www.w3.org/1999/xlink">
    <title>编组</title>
    <g id="20220814" stroke="none" stroke-width="1" fill="none" fill-rule="evenodd">
        <g id="切图" transform="translate(-83.000000, -358.000000)">
            <g id="编组" transform="translate(83.000000, 358.000000)">
                <circle id="椭圆形" fill="#000000" opacity="0.300758539" cx="10" cy="10" r="10"></circle>
                <path d="M9.99928831,3.63636364 C10.2142201,3.63636364 10.414918,3.74454123 10.5316359,3.92388829 L12.9200833,7.57630549 L15.4309422,6.25540013 C15.6401805,6.14579914 15.8935438,6.16003304 16.0885481,6.29383164 C16.2835525,6.42763024 16.3874599,6.65964272 16.3589921,6.89450197 L15.5362731,13.7466985 C15.4209785,14.6932525 14.6167635,15.4077939 13.6616692,15.4077939 L6.335484,15.4077939 C5.3818131,15.4077939 4.5761747,14.6932525 4.46230355,13.7452751 L3.64100787,6.89307858 C3.61254008,6.65821933 3.71644751,6.42763024 3.91145185,6.29240825 C4.1064562,6.15860965 4.35981951,6.14437575 4.56905776,6.25397674 L7.07991665,7.5748821 L9.46694067,3.92388829 C9.58508199,3.74454123 9.78435651,3.63636364 9.99928831,3.63636364 Z M9.99928831,5.43552783 L7.82719609,8.75771869 C7.64784902,9.03243284 7.28915489,9.12495315 6.99878346,8.97265049 L5.04873998,7.94496334 L5.72627334,13.5943959 C5.76328146,13.9032714 6.02518511,14.1352838 6.33690739,14.1352838 L13.6630926,14.1352838 C13.9733915,14.1352838 14.2352952,13.9032714 14.2737267,13.5943959 L14.95126,7.94496334 L13.0012165,8.9712271 C12.7122685,9.12352976 12.352151,9.03100945 12.1728039,8.7562953 L9.99928831,5.43552783 Z M12.3165662,10.3732657 C12.5585424,10.6280524 12.5485787,11.0308716 12.293792,11.2728478 L10.8860599,12.6094104 C10.6369668,12.8442696 10.3181275,12.962411 9.99928831,12.962411 C9.68044908,12.962411 9.36160986,12.8442696 9.11251671,12.6094104 L7.7047846,11.2728478 C7.4499979,11.0308716 7.44003417,10.6280524 7.68201037,10.3732657 C7.92398656,10.118479 8.32680576,10.1085152 8.58159247,10.3504914 L9.98932458,11.6870541 L11.4169841,10.3504914 C11.6717708,10.1085152 12.07459,10.118479 12.3165662,10.3732657 Z" id="形状结合" fill="#FFFFFF" fill-rule="nonzero"></path>
            </g>
        </g>
    </g>
</svg>
